ix/screenmirroring_broken.svg

<svg viewBox="0 0 24 24" fill="none" xmlns="http://www.w3.org/2000/svg" height="1em" width="1em">
  <path d="M2 12.98V15c0 5 2 7 7 7h6c5 0 7-2 7-7V9c0-5-2-7-7-7H9C4 2 2 4 2 9" stroke="#292D32" stroke-width="1.5" stroke-linecap="round" stroke-linejoin="round"/>
  <path d="M12.6 18.5h3.8c1.5 0 2.1-.6 2.1-2.1v-1.8c0-1.5-.6-2.1-2.1-2.1h-3.8c-1.5 0-2.1.6-2.1 2.1v1.8c0 1.5.6 2.1 2.1 2.1Z" stroke="#292D32" stroke-width="1.5" stroke-linecap="round" stroke-linejoin="round"/>
</svg>

<svg viewBox="0 0 24 24" fill="none" xmlns="http://www.w3.org/2000/svg" height="1em" width="1em">
  <path d="M2 12.98V15C2 20 4 22 9 22H15C20 22 22 20 22 15V9C22 4 20 2 15 2H9C4 2 2 4 2 9" stroke="#292D32" stroke-width="1.5" stroke-linecap="round" stroke-linejoin="round"/>
  <path d="M12.6 18.5H16.4C17.9 18.5 18.5 17.9 18.5 16.4V14.6C18.5 13.1 17.9 12.5 16.4 12.5H12.6C11.1 12.5 10.5 13.1 10.5 14.6V16.4C10.5 17.9 11.1 18.5 12.6 18.5Z" stroke="#292D32" stroke-width="1.5" stroke-linecap="round" stroke-linejoin="round"/>
</svg>
